!!!SOCIAL_FUNCTION:	dream songs
!!!PDT:	1913
!!!OTL: No_146_Two_Foxes_Face_Each_Other.krn
!!!REG: Great_Lakes
!!!LANG: Non-Tone
!!!LING_GROUP: Algonquin
**kern	**kern
*staff2	*staff1
=1-	=1-
*clefF4	*clefF4
*k[f#]	*k[f#]
*M3/4	*M3/4
8GG/L	2d\
8GG/J	.
8GG/L	.
8GG/J	.
8GG/L	8.d\L
8GG/J	.
.	16d\Jk
=2	=2
2.r	2d\
.	4B\
=3	=3
2.r	4d\
.	8.B\L
.	16B\Jk
.	8B\L
.	16B\L
.	16A\JJ
=4||	=4||
*M2/4	*M2/4
2r	8.G\L
.	16G\Jk
.	[4G\
=5	=5
2r	2G\]
=6||	=6||
*M3/4	*M3/4
2.r	4d\
.	8.B\L
.	16B\Jk
.	8B\L
.	16B\L
.	16A\JJ
=7||	=7||
*M2/4	*M2/4
2r	2G\
=8	=8
2r	4G\
.	4E\
=9||	=9||
*M3/4	*M3/4
2.r	4G\
.	4E\
.	8G\L
.	8E\J
=10||	=10||
*M2/4	*M2/4
2r	8.D\L
.	16D\Jk
.	[4D\
=11	=11
2r	2D\]
=12||	=12||
*M3/4	*M3/4
2.r	4G\
.	4D\
.	8D/L
.	8BB/J
=13||	=13||
*M2/4	*M2/4
2r	8.D\L
.	16D\Jk
.	[4D\
=14	=14
2r	4D\]
.	4BB/
=15||	=15||
*M3/4	*M3/4
2.r	8.D\L
.	16G\Jk
.	4D\
.	4BB/
=16	=16
2.r	8.GG/L
.	16GG/Jk
.	2GG/
=17	=17
2.r	2.GG/
=18	=18
2.r	8.d\L
.	16d\Jk
.	8.B\L
.	16B\Jk
.	8.B\L
.	16B\Jk
=19||	=19||
*M2/4	*M2/4
2r	2G\
=20	=20
2r	8.G\L
.	16G\Jk
.	4E\
=21||	=21||
*M3/4	*M3/4
2.r	4G\
.	8.E\L
.	16G\Jk
.	8G\L
.	8E\J
=22||	=22||
*M2/4	*M2/4
2r	8.D\L
.	16D\Jk
.	[4D\
=23	=23
2r	2D\]
=24||	=24||
*M3/4	*M3/4
2.r	4G\
.	4D\
.	8D/L
.	8BB/J
=25||	=25||
*M2/4	*M2/4
2r	8.D\L
.	16D\Jk
.	[4D\
=26	=26
2r	4D\]
.	4BB/
=27||	=27||
*M3/4	*M3/4
2.r	8.D\L
.	16G\Jk
.	4D\
.	4BB/
=28	=28
2.r	8.GG/L
.	16GG/Jk
.	2GG/
=29	=29
2.r	2.GG/
==	==
*-	*-
